img/backend/logo.svg

<?xml version="1.0" encoding="UTF-8" standalone="no"?><!DOCTYPE svg PUBLIC "-//W3C//DTD SVG 1.1//EN" "http://www.w3.org/Graphics/SVG/1.1/DTD/svg11.dtd"><svg width="100%" height="100%" viewBox="0 0 100 100" version="1.1" xmlns="http://www.w3.org/2000/svg" xmlns:xlink="http://www.w3.org/1999/xlink" xml:space="preserve" xmlns:serif="http://www.serif.com/" style="fill-rule:evenodd;clip-rule:evenodd;stroke-linejoin:round;stroke-miterlimit:1.41421;"><rect id="icon" x="0" y="0" width="100" height="100" style="fill:none;"/><path d="M50.36,7.066c16.103,0.144 31.603,9.943 38.527,24.407c7.977,16.663 3.638,38.365 -10.186,50.696c-11.767,10.496 -29.558,13.69 -44.294,7.927c-17.497,-6.842 -29.15,-26.207 -27.02,-44.93c2.306,-20.274 20.45,-37.646 41.941,-38.094c0.344,-0.005 0.688,-0.007 1.032,-0.006Zm-0.48,6c-17.616,0.157 -34.112,14.395 -36.45,32.116c-2.125,16.106 7.656,33.046 22.743,39.16c12.593,5.102 27.935,2.569 38.18,-6.339c11.959,-10.397 15.999,-28.88 9.409,-43.324c-5.747,-12.598 -18.906,-21.314 -32.994,-21.608c-0.296,-0.005 -0.592,-0.006 -0.888,-0.005Zm20.44,33.999c2.946,0.316 4.01,5.841 -0.214,5.992l-40.008,0c-2.977,-0.106 -4.224,-5.849 0,-6l40.008,0c0.071,0.003 0.142,0.005 0.214,0.008Z" style="fill:#be1313;fill-rule:nonzero;"/></svg>

<?xml version="1.0" encoding="UTF-8" standalone="no"?>
<!DOCTYPE svg PUBLIC "-//W3C//DTD SVG 1.1//EN" "http://www.w3.org/Graphics/SVG/1.1/DTD/svg11.dtd">
<svg width="100%" height="100%" viewBox="0 0 100 100" version="1.1" xmlns="http://www.w3.org/2000/svg" xmlns:xlink="http://www.w3.org/1999/xlink" xml:space="preserve" xmlns:serif="http://www.serif.com/" style="fill-rule:evenodd;clip-rule:evenodd;stroke-linecap:round;stroke-linejoin:round;stroke-miterlimit:1.5;">
    <rect id="Artboard2" x="0" y="0" width="100" height="100" style="fill:none;"/>
    <path d="M70.106,50.057L30.098,50.057" style="fill:none;stroke:rgb(111,0,222);stroke-width:6px;"/>
    <path d="M50.36,7.066C66.463,7.21 81.963,17.009 88.887,31.473C96.864,48.136 92.525,69.838 78.701,82.169C66.934,92.665 49.143,95.859 34.407,90.096C16.91,83.254 5.257,63.889 7.387,45.166C9.693,24.892 27.837,7.52 49.328,7.072C49.672,7.067 50.016,7.065 50.36,7.066ZM49.88,13.066C32.264,13.223 15.768,27.461 13.43,45.182C11.305,61.288 21.086,78.228 36.173,84.342C48.766,89.444 64.108,86.911 74.353,78.003C86.312,67.606 90.352,49.123 83.762,34.679C78.015,22.081 64.856,13.365 50.768,13.071C50.472,13.066 50.176,13.065 49.88,13.066Z" style="fill:rgb(111,0,222);fill-rule:nonzero;"/>
</svg>
